webapp/client/src/assets/icons/spenden_icon.svg

<svg width="35" height="38" viewBox="0 0 35 38" fill="none" xmlns="http://www.w3.org/2000/svg">
<path d="M25.1411 0.5C24.8665 0.510986 24.5918 0.543945 24.3171 0.609862H24.2952L3.41016 6.67431C1.6084 7.17969 0.399902 8.87158 0.399902 10.7502V32.7778C0.399902 35.1289 2.25659 37.1614 4.61865 37.1614H29.9312C32.2822 37.1614 34.1499 35.1399 34.1499 32.7778V13.4199C34.1499 11.0469 32.2932 9.02539 29.9312 9.02539H5.40967L24.9983 3.33447H25.0093C25.2949 3.25757 25.3718 3.3125 25.4817 3.41138C25.5806 3.51025 25.7124 3.72998 25.7124 4.08154V6.19092H28.5249V4.08154C28.5249 3.02685 28.1294 2.01611 27.3494 1.32397C26.7781 0.807617 25.9761 0.5 25.1411 0.5ZM4.61865 11.8379H29.9312C30.6782 11.8379 31.3374 12.4861 31.3374 13.4199V32.7778C31.3374 33.7007 30.6782 34.3489 29.9312 34.3489H4.61865C3.87158 34.3489 3.2124 33.7007 3.2124 32.7778V13.4199C3.2124 12.4861 3.87158 11.8379 4.61865 11.8379ZM25.7124 20.2534C24.1633 20.2534 22.8999 21.5168 22.8999 23.0659C22.8999 24.615 24.1633 25.8784 25.7124 25.8784C27.2615 25.8784 28.5249 24.615 28.5249 23.0659C28.5249 21.5168 27.2615 20.2534 25.7124 20.2534Z" fill="#0B0C0C"/>
</svg>

<svg width="35" height="38" viewBox="0 0 35 38" fill="none" xmlns="http://www.w3.org/2000/svg">
    <path d="M25.141.5c-.274.011-.55.044-.824.11h-.022L3.41 6.674C1.608 7.18.4 8.872.4 10.75v22.028c0 2.35 1.857 4.383 4.219 4.383H29.93c2.351 0 4.219-2.021 4.219-4.383V13.42c0-2.373-1.857-4.395-4.219-4.395H5.41l19.588-5.69h.011c.286-.077.363-.022.473.076.099.1.23.319.23.67v2.11h2.813V4.08c0-1.054-.396-2.065-1.176-2.757C26.78.808 25.976.5 25.141.5ZM4.62 11.838H29.93c.747 0 1.406.648 1.406 1.582v19.358c0 .923-.659 1.57-1.406 1.57H4.62c-.747 0-1.407-.647-1.407-1.57V13.42c0-.934.66-1.582 1.407-1.582Zm21.093 8.415a2.818 2.818 0 0 0-2.812 2.813 2.818 2.818 0 0 0 2.812 2.812 2.818 2.818 0 0 0 2.813-2.812 2.818 2.818 0 0 0-2.813-2.813Z"
          fill="#0B0C0C"/>
</svg>
